Adwaita++/actions/22/colorfx.svg

<svg height="22" viewBox="0 0 22 22" width="22" xmlns="http://www.w3.org/2000/svg">
  <path d="m7.5 0v1.8125h1v-1.8125zm-4.8125 1.96875-.71875.71875 1.28125 1.3125.71875-.75zm10.625 0-1.28125 1.28125.71875.75 1.28125-1.3125zm-5.3125 1.03125c-2.7614 0-5 2.2386-5 5s2.2386 5 5 5 5-2.2386 5-5-2.2386-5-5-5zm-8 4.5v1h1.8125v-1zm14.1875 0v1h1.8125v-1zm-10.9375 4.53125-1.28125 1.28125.71875.71875 1.28125-1.28125zm9.5 0-.71875.71875 1.28125 1.28125.71875-.71875zm-5.25 2.15625v1.8125h1v-1.8125z" fill="#444" transform="translate(3 3)"/>
</svg>

<svg xmlns="http://www.w3.org/2000/svg" width="22" height="22" viewBox="0 0 22 22">
 <defs>
  <style id="current-color-scheme" type="text/css">
   .ColorScheme-Text { color:#444444; } .ColorScheme-Highlight { color:#4285f4; }
  </style>
 </defs>
 <path style="fill:currentColor" class="ColorScheme-Text" d="M 7.5 0 L 7.5 1.8125 L 8.5 1.8125 L 8.5 0 L 7.5 0 z M 2.6875 1.96875 L 1.96875 2.6875 L 3.25 4 L 3.96875 3.25 L 2.6875 1.96875 z M 13.3125 1.96875 L 12.03125 3.25 L 12.75 4 L 14.03125 2.6875 L 13.3125 1.96875 z M 8 3 C 5.2386 3 3 5.2386 3 8 C 3 10.7614 5.2386 13 8 13 C 10.7614 13 13 10.7614 13 8 C 13 5.2386 10.7614 3 8 3 z M 0 7.5 L 0 8.5 L 1.8125 8.5 L 1.8125 7.5 L 0 7.5 z M 14.1875 7.5 L 14.1875 8.5 L 16 8.5 L 16 7.5 L 14.1875 7.5 z M 3.25 12.03125 L 1.96875 13.3125 L 2.6875 14.03125 L 3.96875 12.75 L 3.25 12.03125 z M 12.75 12.03125 L 12.03125 12.75 L 13.3125 14.03125 L 14.03125 13.3125 L 12.75 12.03125 z M 7.5 14.1875 L 7.5 16 L 8.5 16 L 8.5 14.1875 L 7.5 14.1875 z" transform="translate(3 3)"/>
</svg>
